www/assets/icons/security_update_warning.svg

<svg width="24" height="24" viewBox="0 0 24 24" xmlns="http://www.w3.org/2000/svg" fill='currentColor'><path d="M12.995 15H10.995V17H12.995V15Z"/><path d="M12.995 7H10.995V13H12.995V7Z"/><path d="M16.995 1H6.995C5.895 1 5.005 1.9 5.005 3V21C5.005 22.1 5.895 23 6.995 23H16.995C18.095 23 18.995 22.1 18.995 21V3C18.995 1.9 18.095 1 16.995 1ZM16.995 18H6.995V6H16.995V18Z"/></svg>

<svg xmlns="http://www.w3.org/2000/svg" width="24" height="24" viewBox="0 0 24 24" fill='currentColor'><path d="M12.995 15h-2v2h2zm0-8h-2v6h2z"/><path d="M16.995 1h-10c-1.1 0-1.99.9-1.99 2v18c0 1.1.89 2 1.99 2h10c1.1 0 2-.9 2-2V3c0-1.1-.9-2-2-2m0 17h-10V6h10z"/></svg>
